img/step__07.svg

<svg width="60" height="58" viewBox="0 0 60 58" fill="none" xmlns="http://www.w3.org/2000/svg">
<path d="M57.1663 33.3446C55.4155 31.5879 53.0427 30.5805 50.5544 30.5372V17.1136C50.556 16.7831 50.388 16.4743 50.1088 16.2945L25.7629 0.169122C25.4275 -0.056374 24.9876 -0.056374 24.652 0.169122L0.445949 16.1954C0.166512 16.3783 -0.00105845 16.6887 0.000126612 17.0211V39.5413C-0.00532467 39.8798 0.165564 40.1973 0.452586 40.3802L25.277 56.5187C25.6143 56.739 26.0508 56.739 26.3881 56.5187L42.3523 45.4997C42.4229 45.4473 42.4874 45.3875 42.5452 45.3213L49.2901 57.0803C49.4665 57.3842 49.7886 57.5763 50.1415 57.5887C50.4861 57.589 50.8061 57.4113 50.9862 57.1199L58.536 45.1959C58.5692 45.1467 58.5959 45.0932 58.6158 45.0372C60.9009 41.2763 60.3107 36.4528 57.1857 33.3444H57.1663V33.3446ZM25.8361 31.9773L14.8207 24.7105L36.8849 9.9196L48.1131 17.3513L25.8361 31.9773ZM25.1708 2.18376L35.062 8.73044L13.0247 23.5082L3.00047 16.9022L25.1708 2.18376ZM1.99601 18.58L24.6122 33.5496V53.7111L1.99601 39.006V18.58ZM26.6078 53.9493V33.8467L48.5587 19.4323V30.6958C44.0045 31.5484 40.7022 35.4934 40.6897 40.0963C40.6567 41.3601 40.9449 42.6121 41.5277 43.7363C41.4327 43.7631 41.3429 43.8055 41.2618 43.8617L26.6078 53.9493ZM57.9847 40.1161C57.9783 41.5448 57.568 42.9437 56.8006 44.1524C56.7724 44.2009 56.7477 44.2517 56.7273 44.3042L50.2019 54.6561L43.9427 43.6835C43.882 43.5223 43.7813 43.3794 43.65 43.2671C43.1842 42.8905 42.6855 41.7414 42.6855 40.1161C42.6855 35.9169 46.1135 32.5125 50.3418 32.5125C50.342 32.5125 50.342 32.5125 50.342 32.5125C54.5556 32.5052 57.9776 35.8914 57.9849 40.0765C57.9847 40.0895 57.9847 40.1027 57.9847 40.1161Z" fill="black"/>
<path d="M50.3417 35.4585C48.014 35.4585 46.125 37.3284 46.1177 39.6401C46.1068 41.95 47.9829 43.831 50.3085 43.8418C50.3173 43.8418 50.326 43.842 50.3351 43.8418C52.6661 43.75 54.4804 41.7986 54.3882 39.4838C54.3007 37.2978 52.5364 35.5454 50.3351 35.4585H50.3417ZM52.5499 39.6536C52.5461 40.8708 51.5538 41.8566 50.3282 41.8601C49.7371 41.8575 49.1716 41.6195 48.7585 41.1994C48.3299 40.79 48.0896 40.2239 48.0932 39.6338C48.0932 38.415 49.0877 37.4275 50.3149 37.4275C51.5455 37.4237 52.5461 38.4114 52.5499 39.6338C52.5499 39.6401 52.5499 39.647 52.5499 39.6536Z" fill="#FF2B00"/>
</svg>

<svg width="60" height="58" fill="none" xmlns="http://www.w3.org/2000/svg"><path d="M57.166 33.345a9.57 9.57 0 00-6.612-2.808V17.114a.97.97 0 00-.445-.82L25.763.17a.997.997 0 00-1.111 0L.446 16.195a.983.983 0 00-.446.826v22.52a.976.976 0 00.453.84l24.824 16.138c.337.22.774.22 1.111 0l15.964-11.02c.07-.052.135-.111.193-.178l6.745 11.76c.177.303.499.495.852.508a.992.992 0 00.844-.47l7.55-11.923a.707.707 0 00.08-.159 9.51 9.51 0 00-1.43-11.693h-.02zm-31.33-1.368L14.821 24.71 36.885 9.92l11.228 7.431-22.277 14.626zm-.665-29.793l9.891 6.546-22.037 14.778L3 16.902 25.17 2.184zM1.996 18.58l22.616 14.97v20.16L1.996 39.006V18.58zm24.612 35.37V33.846l21.95-14.415v11.264c-4.553.852-7.856 4.797-7.868 9.4a7.484 7.484 0 00.838 3.64.892.892 0 00-.266.126L26.608 53.949zm31.377-13.834a7.594 7.594 0 01-1.184 4.036c-.029.049-.053.1-.074.152l-6.525 10.352-6.26-10.972a1.022 1.022 0 00-.292-.417c-.466-.377-.965-1.526-.965-3.15 0-4.2 3.428-7.604 7.657-7.604 4.214-.008 7.636 3.378 7.643 7.564v.04z" fill="#000"/><path d="M50.342 35.459c-2.328 0-4.217 1.87-4.224 4.181-.011 2.31 1.865 4.191 4.19 4.202h.027c2.331-.092 4.145-2.043 4.053-4.358-.087-2.186-1.852-3.939-4.053-4.026h.007zm2.208 4.195a2.22 2.22 0 01-2.222 2.206 2.215 2.215 0 01-1.57-.66 2.147 2.147 0 01-.665-1.566c0-1.219.995-2.206 2.222-2.206a2.22 2.22 0 012.235 2.206v.02z" fill="#FF2B00"/></svg>
